lib/flags/m/TUV.svg

<svg xmlns="http://www.w3.org/2000/svg" fill="none" viewBox="0 0 20 15"><mask id="TUV_svg__a" width="20" height="15" x="0" y="0" mask-type="alpha" maskUnits="userSpaceOnUse"><path fill="#fff" d="M0 0H20V15H0z"/></mask><g mask="url(#TUV_svg__a)"><path fill="#00B4FF" fill-rule="evenodd" d="M0 0V15H20V0H0Z" clip-rule="evenodd"/><mask id="TUV_svg__b" width="20" height="15" x="0" y="0" mask-type="alpha" maskUnits="userSpaceOnUse"><path fill="#fff" fill-rule="evenodd" d="M0 0V15H20V0H0Z" clip-rule="evenodd"/></mask><g mask="url(#TUV_svg__b)"><path fill="#2E42A5" d="M0 0H11V9H0z"/><mask id="TUV_svg__c" width="11" height="9" x="0" y="0" mask-type="alpha" maskUnits="userSpaceOnUse"><path fill="#fff" d="M0 0H11V9H0z"/></mask><g mask="url(#TUV_svg__c)"><path fill="#F7FCFF" d="M-1.25266 8.12494L1.22294 9.21069L11.3062 1.18052L12.612 -0.432938L9.96471 -0.795827L5.852 2.6646L2.54169 4.99613L-1.25266 8.12494Z"/><path fill="#F50100" d="M-0.913757 8.88555L0.347444 9.51562L12.1431 -0.582947H10.3722L-0.913757 8.88555Z"/><path fill="#F7FCFF" d="M12.5027 8.1248L10.3056 9.52051L-0.0561867 1.18038L-1.36201 -0.433076L1.28529 -0.795966L5.398 2.66447L8.70831 4.99599L12.5027 8.1248Z"/><path fill="#F50100" d="M12.4182 8.6707L11.157 9.30078L6.13428 4.97706L4.64515 4.49398L-1.48766 -0.427604H0.283216L6.41258 4.37716L8.04068 4.95642L12.4182 8.6707Z"/><mask id="TUV_svg__d" width="13" height="11" x="-1" y="-1" fill="#000" maskUnits="userSpaceOnUse"><path fill="#fff" d="M-1-1H12V10H-1z"/><path fill-rule="evenodd" d="M6 0H5V4H0V5H5V9H6V5H11V4H6V0Z" clip-rule="evenodd"/></mask><path fill="#F50100" fill-rule="evenodd" d="M6 0H5V4H0V5H5V9H6V5H11V4H6V0Z" clip-rule="evenodd"/><path fill="#F7FCFF" d="M5 0V-0.9375H4.0625V0H5ZM6 0H6.9375V-0.9375H6V0ZM5 4V4.9375H5.9375V4H5ZM0 4V3.0625H-0.9375V4H0ZM0 5H-0.9375V5.9375H0V5ZM5 5H5.9375V4.0625H5V5ZM5 9H4.0625V9.9375H5V9ZM6 9V9.9375H6.9375V9H6ZM6 5V4.0625H5.0625V5H6ZM11 5V5.9375H11.9375V5H11ZM11 4H11.9375V3.0625H11V4ZM6 4H5.0625V4.9375H6V4ZM5 0.9375H6V-0.9375H5V0.9375ZM5.9375 4V0H4.0625V4H5.9375ZM0 4.9375H5V3.0625H0V4.9375ZM0.9375 5V4H-0.9375V5H0.9375ZM5 4.0625H0V5.9375H5V4.0625ZM5.9375 9V5H4.0625V9H5.9375ZM6 8.0625H5V9.9375H6V8.0625ZM5.0625 5V9H6.9375V5H5.0625ZM11 4.0625H6V5.9375H11V4.0625ZM10.0625 4V5H11.9375V4H10.0625ZM6 4.9375H11V3.0625H6V4.9375ZM5.0625 0V4H6.9375V0H5.0625Z" mask="url(#TUV_svg__d)"/></g><path fill="#FFD018" fill-rule="evenodd" d="M16.7854 6.67794L17.1649 5.97453L17.9975 5.94966L17.3529 5.41129L17.5751 4.68467L17.0194 5.01856L16.3169 4.59253L16.3849 5.39982L15.7555 5.77802L16.5726 5.88015L16.7854 6.67794ZM14.6649 7.22453L14.2854 7.92794L14.0726 7.13015L13.2555 7.02802L13.8849 6.64982L13.8169 5.84253L14.5194 6.26856L15.0751 5.93467L14.8529 6.66129L15.4975 7.19966L14.6649 7.22453ZM13.0354 9.17794L13.4149 8.47453L14.2475 8.44966L13.6029 7.91129L13.8251 7.18467L13.2694 7.51856L12.5669 7.09253L12.6349 7.89982L12.0055 8.27802L12.8226 8.38015L13.0354 9.17794ZM10.5354 11.6779L10.9149 10.9745L11.7475 10.9497L11.1029 10.4113L11.3251 9.68467L10.7694 10.0186L10.0669 9.59253L10.1349 10.3998L9.5055 10.778L10.3226 10.8802L10.5354 11.6779ZM8.10884 13.5847L7.42127 13.9921L7.64969 13.1987L7.00192 12.6903H7.73624L8.09372 11.9633L8.47648 12.6903H9.12477L8.56003 13.1987L8.8353 13.9921L8.10884 13.5847ZM10.9149 13.4745L10.5354 14.1779L10.3226 13.3802L9.5055 13.278L10.1349 12.8998L10.0669 12.0925L10.7694 12.5186L11.3251 12.1847L11.1029 12.9113L11.7475 13.4497L10.9149 13.4745ZM13.4149 12.2245L13.0354 12.9279L12.8226 12.1302L12.0055 12.028L12.6349 11.6498L12.5669 10.8425L13.2694 11.2686L13.8251 10.9347L13.6029 11.6613L14.2475 12.1997L13.4149 12.2245ZM15.9149 10.9745L15.5354 11.6779L15.3226 10.8802L14.5055 10.778L15.1349 10.3998L15.0669 9.59253L15.7694 10.0186L16.3251 9.68467L16.1029 10.4113L16.7475 10.9497L15.9149 10.9745ZM16.7854 10.4279L17.1649 9.72453L17.9975 9.69966L17.3529 9.16129L17.5751 8.43467L17.0194 8.76856L16.3169 8.34253L16.3849 9.14982L15.7555 9.52802L16.5726 9.63015L16.7854 10.4279Z" clip-rule="evenodd"/></g></g></svg>

<svg xmlns="http://www.w3.org/2000/svg" fill="none" viewBox="0 0 20 15"><mask id="TUV_svg__a" width="20" height="15" x="0" y="0" maskUnits="userSpaceOnUse"><path fill="#fff" d="M0 0h20v15H0z"/></mask><g mask="url(#TUV_svg__a)"><path fill="#00B4FF" fill-rule="evenodd" d="M0 0v15h20V0H0z" clip-rule="evenodd"/><mask id="TUV_svg__b" width="20" height="15" x="0" y="0" maskUnits="userSpaceOnUse"><path fill="#fff" fill-rule="evenodd" d="M0 0v15h20V0H0z" clip-rule="evenodd"/></mask><g mask="url(#TUV_svg__b)"><path fill="#2E42A5" d="M0 0h11v9H0z"/><mask id="TUV_svg__c" width="11" height="9" x="0" y="0" maskUnits="userSpaceOnUse"><path fill="#fff" d="M0 0h11v9H0z"/></mask><g mask="url(#TUV_svg__c)"><path fill="#F7FCFF" d="M-1.253 8.125L1.223 9.21l10.083-8.03 1.306-1.614-2.647-.363-4.113 3.46-3.31 2.332-3.795 3.129z"/><path fill="#F50100" d="M-.914 8.886l1.261.63L12.143-.583h-1.77L-.915 8.886z"/><path fill="#F7FCFF" d="M12.503 8.125L10.306 9.52-.056 1.18-1.362-.434l2.647-.363 4.113 3.46 3.31 2.332 3.795 3.129z"/><path fill="#F50100" d="M12.418 8.67l-1.261.63-5.023-4.323-1.489-.483-6.133-4.921H.283l6.13 4.804 1.628.58 4.377 3.714z"/><mask id="TUV_svg__d" width="13" height="11" x="-1" y="-1" fill="#000" maskUnits="userSpaceOnUse"><path fill="#fff" d="M-1-1h13v11H-1z"/><path fill-rule="evenodd" d="M6 0H5v4H0v1h5v4h1V5h5V4H6V0z" clip-rule="evenodd"/></mask><path fill="#F50100" fill-rule="evenodd" d="M6 0H5v4H0v1h5v4h1V5h5V4H6V0z" clip-rule="evenodd"/><path fill="#F7FCFF" d="M5 0v-.938h-.938V0H5zm1 0h.938v-.938H6V0zM5 4v.938h.938V4H5zM0 4v-.938h-.938V4H0zm0 1h-.938v.938H0V5zm5 0h.938v-.938H5V5zm0 4h-.938v.938H5V9zm1 0v.938h.938V9H6zm0-4v-.938h-.938V5H6zm5 0v.938h.938V5H11zm0-1h.938v-.938H11V4zM6 4h-.938v.938H6V4zM5 .937h1V-.938H5V.938zM5.938 4V0H4.063v4h1.875zM0 4.938h5V3.063H0v1.874zM.938 5V4H-.938v1H.938zM5 4.062H0v1.875h5V4.063zM5.938 9V5H4.063v4h1.875zM6 8.062H5v1.876h1V8.062zM5.062 5v4h1.875V5H5.063zM11 4.062H6v1.875h5V4.063zM10.062 4v1h1.876V4h-1.876zM6 4.938h5V3.063H6v1.874zM5.062 0v4h1.875V0H5.063z" mask="url(#TUV_svg__d)"/></g><path fill="#FFD018" fill-rule="evenodd" d="M16.785 6.678l.38-.703.832-.025-.644-.539.222-.726-.556.334-.702-.426.068.807-.63.378.818.102.212.798zm-2.12.547l-.38.703-.212-.798-.818-.102.63-.378-.068-.807.702.426.556-.334-.222.726.645.539-.833.025zm-1.63 1.953l.38-.703.833-.025-.645-.539.222-.726-.556.334-.702-.426.068.807-.63.378.818.102.212.798zm-2.5 2.5l.38-.703.833-.025-.645-.539.222-.726-.556.334-.702-.426.068.807-.63.378.818.102.212.798zM8.11 13.585l-.688.407.229-.793-.648-.509h.734l.358-.727.382.727h.649l-.565.509.275.793-.726-.407zm2.806-.11l-.38.703-.212-.798-.818-.102.63-.378-.068-.807.702.426.556-.334-.222.726.645.539-.833.025zm2.5-1.25l-.38.703-.212-.798-.818-.102.63-.378-.068-.807.702.426.556-.334-.222.726.645.539-.833.025zm2.5-1.25l-.38.703-.212-.798-.818-.102.63-.378-.068-.807.702.426.556-.334-.222.726.644.539-.832.025zm.87-.547l.38-.703.832-.025-.644-.539.222-.726-.556.334-.702-.426.068.807-.63.378.818.102.212.798z" clip-rule="evenodd"/></g></g></svg>
